X: 4292
T: Barton's Maggot
N: Pub: J. Walsh, London, 1748
Z: 2012 John Chambers <jc:trillian.mit.edu>
M: C|
L: 1/8
K: G
%
V: 1
|: (GB) (dg) (bg) (af) | (ge) (dg) (dB) A2 | (GB) (dg) (bg) (af) | (ge) d>e (BG) G2 :|
|: B>d .G.G B>d .G.G | c>e dB cA A2 | (GB) (dg) (bg) (af) | (ge) d>e (BG) G2 :|
%
V: 2 clef=bass middle=d
|: g2g2 g2g2 | g2g2 g2g2 | g2g2 g2g2 | g2g2 g2g2 :|
|: g2g2 g2g2 | g2g2 g2g2 | g2g2 g2g2 | g2g2 g2g2 :|
%%begintext align
The 1st Man Right hands with the 2d Wo. .|
the 1st Wo. the same with the 2d Man :|
Hands across all round .|
the 1st Cu. cast of and turn :|
%%endtext

%%sep 1 1 500
%%sep 1 1 500

